X: 10071
M: C|
L: 1/8
K: D
[1 FDFA e2eB | (cd)eg fdd :|\
[2 FDAF dABG | FAdg fdd |]
g |\
fede fgaf | gfed cAeg |\
fede fgaf | ecdB Addg |\
fdgg fgag | gfed cAeg |\
fdgb afge | fdec dDD |]


